docs/icons/m.svg

<svg xmlns="http://www.w3.org/2000/svg" width="108" height="97" xmlns:v="https://vecta.io/nano"><path fill-rule="evenodd" stroke-width="3" stroke="#fff" fill="#fff" d="M100.524 71.035c.113-.739-.384-1.37-1.5-1.927-1.641-.818-2.777-6.48-3.722-18.016.101-8.096-.183-15.449-.873-22.095s-1.695-10.336-2.903-10.736c-2.235-.745-3.826-.977-4.755-.697s-1.908.905-2.921 1.9c-5.649 6.465-10.79 15.078-15.255 25.982-1.455 3.39-2.978 7.086-4.546 11.132l-3.034 8.036c-.734-1.636-1.565-4.596-2.531-8.967s-1.809-8.937-2.505-13.659c-.906-6.633-2.155-12.57-3.773-17.855s-3.097-8.148-4.325-8.387c-3.886-.766-6.98.763-9.119 4.814-2.144 4.045-3.868 10.395-5.062 19.212l-.706 5.528c-1.306 9.867-2.184 20.066-2.691 30.472-.516-3.377-2.164-11.524-5.27-24.951l-2.199-9.145-.904-4.409c-1.858-8.391-3.578-15.47-5.121-21.165s-2.739-8.651-3.522-8.766c-1.666-.246-3.156-.032-4.449.663s-1.835 1.763-1.629 3.174c.053.376.628 2.019 1.698 4.895 3.56 9.126 6.549 18.68 9.071 28.785l5.879 24.358c2.109 9.101 3.289 14.913 3.687 17.66.471 2.726 1.286 3.898 2.457 3.537.806-.245 1.679-.919 2.637-1.997s1.435-2.083 1.422-3.045c.735-16.592 1.956-27.973 3.217-34.869 1.201-8.867 2.504-15.438 3.759-19.969s2.769-7.257 4.473-8.306c.608 1.243 1.954 7.075 3.835 17.102l.963 4.836c.864 4.809 2.022 10.16 3.412 15.93l2.54 10.135c.335.911.622 1.436.862 1.582s.753.161 1.544.046c.631-.092 1.399-.437 2.31-1.022s1.686-1.154 2.328-1.718c1.04-.817 2.252-2.807 3.689-5.845 1.437-3.028 3.596-8.467 6.708-15.705 2.839-6.728 5.481-11.752 7.797-15.406 2.316-3.647 4.074-5.917 5.19-7.065 1.153.645 2.185 9.991 2.642 26.695.412 5.484.883 10.215 1.422 14.224s1.096 6.298 1.718 7.011c.194.345.563.518 1.11.523s1.296-.056 2.251-.18c1.113-.145 2.158-.492 3.14-1.025s1.502-.959 1.554-1.305h0 0z"/></svg>

<svg
 xmlns="http://www.w3.org/2000/svg"
 xmlns:xlink="http://www.w3.org/1999/xlink"
 width="108px" height="97px">
<path fill-rule="evenodd"  stroke-width="3px" stroke="#ffffff" fill="#ffffff"
 d="M100.524,71.035 C100.637,70.296 100.140,69.665 99.024,69.108 C97.383,68.290 96.247,62.628 95.302,51.092 C95.403,42.996 95.119,35.643 94.429,28.997 C93.739,22.351 92.734,18.661 91.526,18.261 C89.291,17.516 87.700,17.284 86.771,17.564 C85.840,17.844 84.863,18.469 83.850,19.464 C78.201,25.929 73.060,34.542 68.595,45.446 C67.140,48.836 65.617,52.532 64.049,56.578 C62.481,60.630 61.499,63.373 61.015,64.614 C60.281,62.978 59.450,60.018 58.484,55.647 C57.516,51.277 56.675,46.710 55.979,41.988 C55.073,35.355 53.824,29.418 52.206,24.133 C50.586,18.848 49.109,15.985 47.881,15.746 C43.995,14.980 40.901,16.509 38.762,20.560 C36.618,24.605 34.894,30.955 33.700,39.772 C33.457,41.602 33.222,43.445 32.994,45.300 C31.688,55.167 30.810,65.366 30.303,75.772 C29.787,72.395 28.139,64.248 25.033,50.821 C24.254,47.661 23.519,44.610 22.834,41.676 C22.534,40.210 22.233,38.740 21.930,37.267 C20.072,28.876 18.352,21.797 16.809,16.102 C15.267,10.408 14.070,7.451 13.287,7.336 C11.621,7.090 10.131,7.304 8.838,7.999 C7.541,8.694 7.003,9.762 7.209,11.173 C7.262,11.549 7.837,13.192 8.907,16.068 C12.467,25.194 15.456,34.748 17.978,44.853 C19.763,51.955 21.742,60.106 23.857,69.211 C25.966,78.312 27.146,84.124 27.544,86.871 C28.015,89.597 28.830,90.769 30.001,90.408 C30.807,90.163 31.680,89.489 32.638,88.411 C33.594,87.333 34.073,86.328 34.060,85.366 C34.795,68.774 36.016,57.393 37.277,50.497 C38.478,41.630 39.781,35.059 41.036,30.528 C42.291,25.998 43.805,23.271 45.509,22.222 C46.117,23.465 47.463,29.297 49.344,39.324 C49.669,40.943 49.990,42.555 50.307,44.160 C51.171,48.969 52.329,54.320 53.719,60.090 C55.106,65.855 55.918,69.164 56.259,70.225 C56.594,71.136 56.881,71.661 57.121,71.807 C57.361,71.955 57.874,71.968 58.665,71.853 C59.296,71.761 60.064,71.416 60.975,70.831 C61.884,70.248 62.661,69.677 63.303,69.113 C64.343,68.296 65.555,66.306 66.992,63.268 C68.429,60.240 70.588,54.801 73.700,47.563 C76.539,40.835 79.181,35.811 81.497,32.157 C83.813,28.510 85.571,26.240 86.687,25.092 C87.840,25.737 88.872,35.083 89.329,51.787 C89.741,57.271 90.212,62.002 90.751,66.011 C91.289,70.021 91.847,72.309 92.469,73.022 C92.663,73.367 93.032,73.540 93.579,73.545 C94.124,73.551 94.875,73.489 95.830,73.365 C96.943,73.220 97.988,72.873 98.970,72.340 C99.950,71.809 100.472,71.381 100.524,71.035 L100.524,71.035 L100.524,71.035 Z"/>
</svg>
